public/flags/MT.svg

<svg fill="none" height="53" viewBox="0 0 61 53" width="61" xmlns="http://www.w3.org/2000/svg" xmlns:xlink="http://www.w3.org/1999/xlink"><mask id="a" height="43" maskUnits="userSpaceOnUse" width="59" x="1" y="3"><rect fill="#fff" height="41.4393" rx="3.7125" stroke="#fff" stroke-width="1.06071" width="57.9393" x="1.53036" y="3.53036"/></mask><mask id="b" fill="#000" height="12" maskUnits="userSpaceOnUse" width="12" x="4.61914" y="6.66663"><path d="m4.61914 6.66663h12v12h-12z" fill="#fff"/><path clip-rule="evenodd" d="m12.2382 8.66663h-2.80956v2.83327h-2.8095v2.8334h2.8095v2.8333h2.80956v-2.8333h2.8095v-2.8334h-2.8095z" fill="#000" fill-rule="evenodd"/></mask><rect fill="#fff" height="41.4393" rx="3.7125" stroke="#f5f5f5" stroke-width="1.06071" width="57.9393" x="1.53036" y="3.53036"/><g mask="url(#a)"><path clip-rule="evenodd" d="m31.9048 45.5h28.0952v-42.5h-28.0952z" fill="#de233c" fill-rule="evenodd"/><path clip-rule="evenodd" d="m12.2382 8.66663h-2.80956v2.83327h-2.8095v2.8334h2.8095v2.8333h2.80956v-2.8333h2.8095v-2.8334h-2.8095z" fill="#cccccd" fill-rule="evenodd"/><g fill="#7b716a"><path d="m9.42864 8.66663v-1.41429h-1.41429v1.41429zm2.80956 0h1.4142v-1.41429h-1.4142zm-2.80956 2.83327v1.4143h1.41426v-1.4143zm-2.8095 0v-1.4142h-1.41429v1.4142zm0 2.8334h-1.41429v1.4143h1.41429zm2.8095 0h1.41426v-1.4143h-1.41426zm0 2.8333h-1.41429v1.4143h1.41429zm2.80956 0v1.4143h1.4142v-1.4143zm0-2.8333v-1.4143h-1.4143v1.4143zm2.8095 0v1.4143h1.4143v-1.4143zm0-2.8334h1.4143v-1.4142h-1.4143zm-2.8095 0h-1.4143v1.4143h1.4143zm-2.80956-1.419h2.80956v-2.82856h-2.80956zm1.41426 1.419v-2.83327h-2.82855v2.83327zm-4.22376 1.4143h2.8095v-2.8285h-2.8095zm1.41429 1.4191v-2.8334h-2.82858v2.8334zm1.39521-1.4143h-2.8095v2.8286h2.8095zm1.41426 4.2476v-2.8333h-2.82855v2.8333zm1.3953-1.4143h-2.80956v2.8286h2.80956zm-1.4143-1.419v2.8333h2.8285v-2.8333zm4.2238-1.4143h-2.8095v2.8286h2.8095zm-1.4143-1.4191v2.8334h2.8286v-2.8334zm-1.3952 1.4143h2.8095v-2.8285h-2.8095zm-1.4143-4.24757v2.83327h2.8285v-2.83327z" fill-opacity=".66" mask="url(#b)"/><path clip-rule="evenodd" d="m10.8335 14.3333c.7758 0 1.4047-.6342 1.4047-1.4166s-.6289-1.4167-1.4047-1.4167c-.7759 0-1.40479.6343-1.40479 1.4167s.62889 1.4166 1.40479 1.4166z" fill-rule="evenodd"/></g></g></svg>

<svg width="61" height="53" viewBox="0 0 61 53" fill="none" xmlns="http://www.w3.org/2000/svg">
<rect x="1.53036" y="3.53036" width="57.9393" height="41.4393" rx="3.7125" fill="white" stroke="#F5F5F5" stroke-width="1.06071"/>
<mask id="mask0" mask-type="alpha" maskUnits="userSpaceOnUse" x="1" y="3" width="59" height="43">
<rect x="1.53036" y="3.53036" width="57.9393" height="41.4393" rx="3.7125" fill="white" stroke="white" stroke-width="1.06071"/>
</mask>
<g mask="url(#mask0)">
<path fill-rule="evenodd" clip-rule="evenodd" d="M31.9048 45.5H60V3H31.9048V45.5Z" fill="#DE233C"/>
<mask id="path-4-outside-1" maskUnits="userSpaceOnUse" x="4.61914" y="6.66663" width="12" height="12" fill="black">
<rect fill="white" x="4.61914" y="6.66663" width="12" height="12"/>
<path fill-rule="evenodd" clip-rule="evenodd" d="M12.2382 8.66663H9.42864V11.4999H6.61914V14.3333H9.42864V17.1666H12.2382V14.3333H15.0477V11.4999H12.2382V8.66663Z"/>
</mask>
<path fill-rule="evenodd" clip-rule="evenodd" d="M12.2382 8.66663H9.42864V11.4999H6.61914V14.3333H9.42864V17.1666H12.2382V14.3333H15.0477V11.4999H12.2382V8.66663Z" fill="#CCCCCD"/>
<path d="M9.42864 8.66663V7.25234H8.01435V8.66663H9.42864ZM12.2382 8.66663H13.6524V7.25234H12.2382V8.66663ZM9.42864 11.4999V12.9142H10.8429V11.4999H9.42864ZM6.61914 11.4999V10.0857H5.20485V11.4999H6.61914ZM6.61914 14.3333H5.20485V15.7476H6.61914V14.3333ZM9.42864 14.3333H10.8429V12.919H9.42864V14.3333ZM9.42864 17.1666H8.01435V18.5809H9.42864V17.1666ZM12.2382 17.1666V18.5809H13.6524V17.1666H12.2382ZM12.2382 14.3333V12.919H10.8239V14.3333H12.2382ZM15.0477 14.3333V15.7476H16.462V14.3333H15.0477ZM15.0477 11.4999H16.462V10.0857H15.0477V11.4999ZM12.2382 11.4999H10.8239V12.9142H12.2382V11.4999ZM9.42864 10.0809H12.2382V7.25234H9.42864V10.0809ZM10.8429 11.4999V8.66663H8.01435V11.4999H10.8429ZM6.61914 12.9142H9.42864V10.0857H6.61914V12.9142ZM8.03343 14.3333V11.4999H5.20485V14.3333H8.03343ZM9.42864 12.919H6.61914V15.7476H9.42864V12.919ZM10.8429 17.1666V14.3333H8.01435V17.1666H10.8429ZM12.2382 15.7523H9.42864V18.5809H12.2382V15.7523ZM10.8239 14.3333V17.1666H13.6524V14.3333H10.8239ZM15.0477 12.919H12.2382V15.7476H15.0477V12.919ZM13.6334 11.4999V14.3333H16.462V11.4999H13.6334ZM12.2382 12.9142H15.0477V10.0857H12.2382V12.9142ZM10.8239 8.66663V11.4999H13.6524V8.66663H10.8239Z" fill="#7B716A" fill-opacity="0.66" mask="url(#path-4-outside-1)"/>
<path fill-rule="evenodd" clip-rule="evenodd" d="M10.8335 14.3333C11.6093 14.3333 12.2382 13.6991 12.2382 12.9167C12.2382 12.1343 11.6093 11.5 10.8335 11.5C10.0576 11.5 9.42871 12.1343 9.42871 12.9167C9.42871 13.6991 10.0576 14.3333 10.8335 14.3333Z" fill="#7B716A"/>
</g>
</svg>
